Default.style/bike_service.svg

<svg xmlns="http://www.w3.org/2000/svg" width="27" height="31" viewBox="0 0 27 31">
  <g fill="gray" fill-rule="evenodd">
    <path fill-rule="nonzero" d="M5.30505531,31 C6.03793474,31 6.72361984,30.8603778 7.36211061,30.5811335 C8.00061276,30.3018869 8.56276595,29.915457 9.04857019,29.4218439 C9.5343858,28.9282322 9.91470921,28.3556422 10.1895404,27.7040737 C10.4643716,27.0525113 10.6017872,26.3572253 10.6017872,25.6182157 C10.6017872,24.873568 10.4657589,24.1754572 10.1937021,23.5238833 C9.92164537,22.8723209 9.54271488,22.2997315 9.05691064,21.8061148 C8.57109503,21.3124982 8.00754892,20.9274831 7.36627231,20.6510693 C6.72500708,20.374644 6.03793474,20.2364314 5.30505531,20.2364314 C4.57217588,20.2364314 3.88509786,20.374644 3.24382126,20.6510693 C2.60255602,20.9274831 2.0390156,21.3124982 1.55319998,21.8061148 C1.06739574,22.2997315 0.687078019,22.8723209 0.412246811,23.5238833 C0.137415604,24.1754572 0,24.873568 0,25.6182157 C0,26.3628633 0.137415604,27.05956 0.412246811,27.7083057 C0.687078019,28.3570528 1.06739574,28.9282322 1.55319998,29.4218439 C2.0390156,29.915457 2.60255602,30.3018869 3.24382126,30.5811335 C3.88509786,30.8603778 4.57217588,31 5.30505531,31 Z M5.30505531,29.6714706 C4.74984397,29.6714706 4.23210495,29.567107 3.75183827,29.3583796 C3.27158296,29.1496523 2.84823829,28.8605368 2.48180426,28.4910331 C2.11535886,28.1215295 1.82942411,27.6913817 1.62400001,27.2005899 C1.41856453,26.7098004 1.31584679,26.1823423 1.31584679,25.6182157 C1.31584679,25.054089 1.41856453,24.5280364 1.62400001,24.0400578 C1.82942411,23.5520908 2.11535886,23.1219425 2.48180426,22.7496129 C2.84823829,22.3772948 3.27297588,22.0867687 3.75601703,21.8780344 C4.2390468,21.6693117 4.7553929,21.5649503 5.30505531,21.5649503 C5.85471773,21.5649503 6.37106382,21.6693117 6.8540936,21.8780344 C7.33713475,22.0867687 7.76187233,22.3772948 8.12830636,22.7496129 C8.49475176,23.1219425 8.78068652,23.5535003 8.98611062,24.0442863 C9.19154609,24.5350839 9.29426383,25.059727 9.29426383,25.6182157 C9.29426383,26.1767043 9.19154609,26.7013416 8.98611062,27.1921277 C8.78068652,27.6829195 8.49475176,28.1144777 8.12830636,28.4868022 C7.76187233,28.8591265 7.33713475,29.1496523 6.8540936,29.3583796 C6.37106382,29.567107 5.85471773,29.6714706 5.30505531,29.6714706 Z M21.7032169,31 C22.4361759,31 23.1218895,30.8603778 23.7603575,30.5811335 C24.3988255,30.3018869 24.9609958,29.915457 25.4468682,29.4218439 C25.932627,28.9282322 26.312922,28.3570528 26.5877532,27.7083057 C26.8625844,27.05956 27,26.3628633 27,25.6182157 C27,24.873568 26.8625844,24.1754572 26.5877532,23.5238833 C26.312922,22.8723209 25.932627,22.301141 25.4468682,21.8103434 C24.9609958,21.3195573 24.3988255,20.9345422 23.7603575,20.6552978 C23.1218895,20.3760535 22.4361759,20.2364314 21.7032169,20.2364314 C20.9703716,20.2364314 20.2832936,20.3760535 19.6419829,20.6552978 C19.0007858,20.9345422 18.4358866,21.3195573 17.9472852,21.8103434 C17.4586837,22.301141 17.0769674,22.8723209 16.8021362,23.5238833 C16.527305,24.1754572 16.3898894,24.873568 16.3898894,25.6182157 C16.3898894,26.3628633 16.527305,27.0609701 16.8021362,27.7125359 C17.0769674,28.3641042 17.4586837,28.9366942 17.9472852,29.4303061 C18.4358866,29.9239181 19.0007858,30.3089367 19.6419829,30.585362 C20.2832936,30.8617873 20.9703716,31 21.7032169,31 Z M21.7032169,29.6714706 C20.9647999,29.6714706 20.2930156,29.4909496 19.6878639,29.1299076 C19.0827122,28.7688661 18.6010469,28.2808956 18.242868,27.6659962 C17.8848029,27.0510949 17.7057703,26.3685014 17.7057703,25.6182157 C17.7057703,25.059727 17.8098696,24.5350839 18.0180681,24.0442863 C18.2262667,23.5535003 18.5121844,23.1219425 18.8758212,22.7496129 C19.239458,22.3772948 19.6642127,22.0867687 20.1500852,21.8780344 C20.6358439,21.6693117 21.1535545,21.5649503 21.7032169,21.5649503 C22.2528793,21.5649503 22.7692254,21.670727 23.2522552,21.8822803 C23.735285,22.093822 24.1586751,22.3857576 24.5224257,22.7580873 C24.8860625,23.1304053 25.1719802,23.5605536 25.3801787,24.0485322 C25.5883773,24.5364992 25.6924766,25.059727 25.6924766,25.6182157 C25.6924766,26.1767043 25.5883773,26.7013416 25.3801787,27.1921277 C25.1719802,27.6829195 24.8860625,28.1144777 24.5224257,28.4868022 C24.1586751,28.8591265 23.735285,29.1496523 23.2522552,29.3583796 C22.7692254,29.567107 22.2528793,29.6714706 21.7032169,29.6714706 Z M14.1995574,14.6600136 C14.1995574,14.8405462 14.2634099,14.994275 14.3911149,15.1212 C14.5188085,15.248125 14.6714893,15.3115876 14.8491574,15.3115876 L17.0061276,15.3115876 C17.0561589,15.3115876 17.0922611,15.3313322 17.114434,15.3708216 L21.0786212,25.8636087 L22.2861956,25.4405137 L18.1388256,14.5669341 C17.994417,14.188978 17.6918411,14 17.231098,14 L14.8491574,14 C14.6714893,14 14.5188085,14.0634625 14.3911149,14.1903876 C14.2634099,14.3173126 14.1995574,14.4738546 14.1995574,14.6600136 Z M19.404732,19.7964049 L19.404732,18.5778969 L10.5684766,19.8979588 L10.5684766,21.1164669 L19.404732,19.7964049 Z M12.5755574,26.3882403 L12.5755574,25.1697322 L5.38834043,25.1697322 L5.38834043,26.3882403 L12.5755574,26.3882403 Z M13.4916595,27.4205997 C13.8136908,27.4205997 14.1065674,27.3402115 14.3702893,27.1794352 C14.6340113,27.0186589 14.84499,26.8056984 15.0032255,26.5405538 C15.1615064,26.2754161 15.2406469,25.9792519 15.2406469,25.6520612 C15.2406469,25.3248705 15.1615064,25.027291 15.0032255,24.7593228 C14.84499,24.4913661 14.6340113,24.2784091 14.3702893,24.1204518 C14.1065674,23.9624944 13.8136908,23.8835158 13.4916595,23.8835158 C13.1696397,23.8835158 12.8767688,23.9624944 12.6130468,24.1204518 C12.3493135,24.2784091 12.1383291,24.4913661 11.9800936,24.7593228 C11.8218581,25.027291 11.7427404,25.3248705 11.7427404,25.6520612 C11.7371915,25.9736139 11.8121475,26.2683685 11.9676085,26.5363252 C12.1230695,26.8042889 12.3340482,27.0186589 12.6005447,27.1794352 C12.8670525,27.3402115 13.1640908,27.4205997 13.4916595,27.4205997 Z M13.5,26.2613152 C13.3278808,26.2613152 13.1835234,26.2020812 13.0669276,26.0836132 C12.9503319,25.9651453 12.892034,25.8241136 12.892034,25.6605182 C12.892034,25.4912849 12.9503319,25.3460247 13.0669276,25.2247377 C13.1835234,25.1034507 13.3278808,25.0428072 13.5,25.0428072 C13.6665589,25.0428072 13.8067489,25.1020412 13.9205702,25.2205092 C14.0343915,25.3389656 14.0913021,25.4856353 14.0913021,25.6605182 C14.0913021,25.8241136 14.0343915,25.9651453 13.9205702,26.0836132 C13.8067489,26.2020812 13.6665589,26.2613152 13.5,26.2613152 Z M5.30505531,26.7182557 C5.60486807,26.7182557 5.86165389,26.6110754 6.07541276,26.3967146 C6.28917163,26.1823423 6.39605106,25.9228427 6.39605106,25.6182157 C6.39605106,25.3079391 6.29055886,25.0456204 6.07957446,24.8312597 C5.86859005,24.6168874 5.610417,24.5097012 5.30505531,24.5097012 C4.99968225,24.5097012 4.74289644,24.6154721 4.53469787,24.8270138 C4.32648793,25.0385671 4.22238296,25.3023011 4.22238296,25.6182157 C4.21683403,25.9228427 4.31955176,26.1823423 4.53053617,26.3967146 C4.7415092,26.6110754 4.99968225,26.7182557 5.30505531,26.7182557 Z M21.7032169,26.7267301 C22.0030638,26.7267301 22.258451,26.6181345 22.4693786,26.4009432 C22.6804198,26.1837519 22.7859404,25.9228427 22.7859404,25.6182157 C22.7859404,25.3079391 22.6818412,25.0470299 22.4736426,24.8354882 C22.265444,24.6239349 22.0086355,24.5181583 21.7032169,24.5181583 C21.4034837,24.5181583 21.1480965,24.6225254 20.9370553,24.8312597 C20.7261277,25.0399824 20.6178781,25.3023011 20.6123064,25.6182157 C20.6067348,25.9228427 20.7108341,26.1837519 20.9246043,26.4009432 C21.1383745,26.6181345 21.3979121,26.7267301 21.7032169,26.7267301 Z M13.2085106,24.3235422 L14.2828425,24.9412533 L19.4628934,19.2971619 L17.9556427,19.2463849 L13.2085106,24.3235422 Z M4.81368509,25.1951207 L5.8796936,25.8128318 L10.8349787,20.6679834 L9.785617,19.9487184 L4.81368509,25.1951207 Z M12.3340425,25.1104982 L13.400051,24.3319993 L9.72731913,17.257835 L8.4780936,17.5286164 L12.3340425,25.1104982 Z M6.92071487,17.08859 C6.92071487,17.269111 6.98318012,17.4228398 7.10811063,17.5497764 C7.23302978,17.6767014 7.38709785,17.7401639 7.57031487,17.7401639 L10.8433021,17.7401639 C11.0265191,17.7401639 11.1805929,17.6767014 11.3055234,17.5497764 C11.4304425,17.4228398 11.4929021,17.269111 11.4929021,17.08859 C11.4929021,16.908069 11.4290496,16.7529365 11.3013447,16.6231925 C11.173651,16.4934369 11.0209702,16.428559 10.8433021,16.428559 L7.57031487,16.428559 C7.39264678,16.428559 7.23996594,16.4934369 7.11227233,16.6231925 C6.98456736,16.7529365 6.92071487,16.908069 6.92071487,17.08859 Z"/>
    <path d="M22,0 C24.7614237,-5.07265313e-16 27,2.23857625 27,5 C27,7.76142375 24.7614237,10 22,10 C19.949887,10 18.1879545,8.76615282 17.4162763,7.0005324 L7.58372366,7.0005324 C6.81204551,8.76615282 5.05011298,10 3,10 C1.87430683,10 0.835499491,9.62799751 -0.00019433083,9.00022021 L0.5,8 L3,8 L5,6 L5,4 L3,2 L0.5,2 L3.37507799e-14,1 L0.0798277382,0.940896929 C0.901397239,0.348808626 1.90996431,2.00236308e-16 3,0 C5.05049747,-3.76670275e-16 6.81270639,1.23431003 7.58415773,3.00046106 L17.4158423,3.00046106 C18.1872936,1.23431003 19.9495025,3.76670275e-16 22,0 Z M21,2 L23,2 L24.9998057,4 L24.9998057,6 L23,8 L21,8 L18.9998057,6 L18.9998057,4 L21,2 Z"/>
  </g>
</svg>

<svg xmlns="http://www.w3.org/2000/svg" width="27" height="31"><g fill="gray" fill-rule="evenodd"><path fill-rule="nonzero" d="M5.305 31c.733 0 1.419-.14 2.057-.419.639-.28 1.2-.666 1.687-1.16a5.436 5.436 0 0 0 1.14-1.717 5.311 5.311 0 0 0 .413-2.086 5.38 5.38 0 0 0-1.545-3.812 5.283 5.283 0 0 0-1.69-1.155 5.15 5.15 0 0 0-2.062-.415c-.733 0-1.42.139-2.061.415a5.283 5.283 0 0 0-1.69 1.155 5.436 5.436 0 0 0-1.142 1.718A5.333 5.333 0 0 0 0 25.618c0 .745.137 1.442.412 2.09a5.45 5.45 0 0 0 1.141 1.714c.486.493 1.05.88 1.69 1.16.642.278 1.33.418 2.062.418Zm0-1.329a3.854 3.854 0 0 1-1.553-.313 4.04 4.04 0 0 1-2.128-2.157 4.056 4.056 0 0 1-.308-1.583 4.025 4.025 0 0 1 1.166-2.868 3.993 3.993 0 0 1 1.274-.872c.483-.209 1-.313 1.55-.313.549 0 1.065.104 1.548.313.483.209.908.5 1.274.872a4.064 4.064 0 0 1 1.166 2.868 4.064 4.064 0 0 1-1.166 2.869 3.993 3.993 0 0 1-1.274.871c-.483.21-1 .313-1.549.313ZM21.703 31c.733 0 1.419-.14 2.057-.419.639-.28 1.201-.666 1.687-1.16a5.45 5.45 0 0 0 1.14-1.713 5.302 5.302 0 0 0 .413-2.09c0-.744-.137-1.443-.412-2.094a5.387 5.387 0 0 0-2.828-2.869 5.077 5.077 0 0 0-2.057-.419c-.733 0-1.42.14-2.061.42a5.426 5.426 0 0 0-1.695 1.154 5.352 5.352 0 0 0-1.557 3.808c0 .745.137 1.443.412 2.095a5.401 5.401 0 0 0 2.84 2.872 5.151 5.151 0 0 0 2.061.415Zm0-1.329c-.738 0-1.41-.18-2.015-.541a4.05 4.05 0 0 1-1.982-3.512c0-.558.104-1.083.312-1.574a4.16 4.16 0 0 1 .858-1.294 3.932 3.932 0 0 1 2.827-1.185c.55 0 1.066.106 1.55.317.482.212.906.504 1.27.876.363.372.649.803.857 1.29.208.488.312 1.012.312 1.57 0 .559-.104 1.083-.312 1.574a4.16 4.16 0 0 1-.858 1.295 3.946 3.946 0 0 1-1.27.871c-.483.21-1 .313-1.549.313ZM14.2 14.66c0 .18.063.334.191.461s.28.19.458.19h2.157c.05 0 .086.02.108.06l3.965 10.493 1.207-.423-4.147-10.874c-.145-.378-.447-.567-.908-.567H14.85a.627.627 0 0 0-.458.19.636.636 0 0 0-.191.47Zm5.205 5.136v-1.218l-8.837 1.32v1.218l8.837-1.32Zm-6.83 6.592V25.17H5.389v1.218h7.188Zm.917 1.033c.322 0 .615-.08.878-.242.264-.16.475-.373.633-.638a1.7 1.7 0 0 0 .238-.889c0-.327-.08-.625-.238-.893a1.798 1.798 0 0 0-.633-.639 1.677 1.677 0 0 0-.878-.236c-.322 0-.615.078-.879.236-.264.158-.475.371-.633.64a1.723 1.723 0 0 0-.237.892c-.006.322.07.616.225.884s.366.483.633.643c.266.161.563.242.89.242Zm.008-1.16a.583.583 0 0 1-.433-.177.582.582 0 0 1-.175-.423c0-.17.058-.315.175-.436a.577.577 0 0 1 .433-.182.56.56 0 0 1 .42.178.61.61 0 0 1 .171.44.59.59 0 0 1-.17.423.56.56 0 0 1-.421.177Zm-8.195.457c.3 0 .557-.107.77-.321.214-.215.321-.474.321-.779 0-.31-.105-.572-.316-.787a1.045 1.045 0 0 0-.775-.321c-.305 0-.562.105-.77.317a1.083 1.083 0 0 0-.313.791 1.04 1.04 0 0 0 .309.779c.21.214.469.321.774.321Zm16.398.009c.3 0 .555-.109.766-.326.211-.217.317-.478.317-.783 0-.31-.104-.571-.312-.783a1.038 1.038 0 0 0-.77-.317c-.3 0-.556.105-.767.313a1.09 1.09 0 0 0-.325.787c-.005.305.099.566.313.783.213.217.473.326.778.326Zm-8.494-2.403 1.074.617 5.18-5.644-1.507-.05-4.747 5.077Zm-8.395.871 1.066.618 4.955-5.145-1.05-.72-4.971 5.247Zm7.52-.085 1.066-.778-3.673-7.074-1.249.27 3.856 7.582ZM6.921 17.09c0 .18.062.334.187.46.125.128.28.191.462.191h3.273a.623.623 0 0 0 .463-.19.633.633 0 0 0 .187-.461.64.64 0 0 0-.192-.466.62.62 0 0 0-.458-.194H7.57a.62.62 0 0 0-.458.194.64.64 0 0 0-.191.466Z"/><path d="M22 0a5 5 0 1 1-4.584 7H7.584A5.001 5.001 0 0 1 0 9l.5-1H3l2-2V4L3 2H.5L0 1 .08.94A5.001 5.001 0 0 1 7.584 3h9.832A5.001 5.001 0 0 1 22 0Zm-1 2h2l2 2v2l-2 2h-2l-2-2V4l2-2Z"/></g></svg>
